X: 534
T: Jie shunshun
L: 1/8
M: 2/4
K: G
g> e d d [I:setbarnb 1]| 
e BA2 | 
g> e d B | 
A/ B/ A/ G/E2 | 
e> e f e | 
A B/ A/E2 | 
A/ A/ A/ B/ d F | 
E DE2 |]

@@@ Tune index: 9408
